svg/u1f4f7.svg

<svg viewBox="0 0 128 128" xmlns="http://www.w3.org/2000/svg">
  <g>
    <path d="M25.24,39.27H12.99c-1.63,0-2.95-1.32-2.95-2.95V29.1c0-1.63,1.32-2.95,2.95-2.95h12.25 c1.63,0,2.95,1.32,2.95,2.95v7.22C28.18,37.95,26.86,39.27,25.24,39.27z" fill="#90A4AE"/>
    <path d="M16.28,40.52h-4v-10.4c0-1.1,0.9-2,2-2h0c1.1,0,2,0.9,2,2V40.52z" fill="#94D1E0"/>
    <path d="M42.36,35.8h-5.51c-1.1,0-1.99-0.89-1.99-1.99V28.3c0-1.1,0.53-1.58,1.99-1.99 c1.46-0.41,4.12-0.46,5.51,0c1.14,0.38,1.99,0.89,1.99,1.99v5.51C44.35,34.91,43.45,35.8,42.36,35.8z" fill="#546E7A"/>
    <rect height="60.14" fill="#212121" width="120" x="4" y="58.9"/>
    <path d="M4,117.68v2.73c0,1.98,1.61,3.59,3.59,3.59h112.83c1.98,0,3.59-1.61,3.59-3.59v-2.73H4z" fill="#B0BEC5"/>
    <path d="M43.34,40.55h-7.49c-2.44,0-4.42-1.98-4.42-4.42v-0.65c0-2.44,1.98-4.42,4.42-4.42h7.49 c2.44,0,4.42,1.98,4.42,4.42v0.65C47.77,38.57,45.79,40.55,43.34,40.55z" fill="#90A4AE"/>
    <path d="M121.73,34.16H8.05C5.81,34.16,4,35.97,4,38.21v21.72h120v-23.5 C124,35.17,122.98,34.16,121.73,34.16z" fill="#B0BEC5"/>
    <path d="M112.49,55.24H94.34c-1.06,0-1.92-0.86-1.92-1.92V40.67c0-1.06,0.86-1.92,1.92-1.92h18.15 c1.06,0,1.92,0.86,1.92,1.92v12.66C114.41,54.38,113.56,55.24,112.49,55.24z" fill="#78909C"/>
    <path d="M92.42,52.84V40.88c0-1.18,0.95-2.13,2.13-2.13h17.79c1,0,1.41,0.55,1.41,0.55L93.11,54.72 C93.11,54.72,92.42,54.3,92.42,52.84z" fill="#757575"/>
    <rect height="10.47" fill="#212121" width="13.95" x="96.44" y="41.76"/>
    <path d="M10.58,115.87H5.7c-0.94,0-1.7-0.76-1.7-1.7V68.28c0-0.94,0.76-1.7,1.7-1.7h4.88 c0.94,0,1.7,0.76,1.7,1.7v45.89C12.28,115.11,11.51,115.87,10.58,115.87z" fill="#616161"/>
    <path d="M122.28,115.87h-4.88c-0.94,0-1.7-0.76-1.7-1.7V68.28c0-0.94,0.76-1.7,1.7-1.7h4.88 c0.94,0,1.7,0.76,1.7,1.7v45.89C123.98,115.11,123.22,115.87,122.28,115.87z" fill="#616161"/>
    <path d="M8.04,122.64L8.04,122.64c-1.1,0-2-0.9-2-2v-2.44h4v2.44C10.04,121.74,9.15,122.64,8.04,122.64z" fill="#B9E4EA"/>
    <path d="M121.86,58.52h-4v-20.4c0-1.1,0.9-2,2-2h0c1.1,0,2,0.9,2,2V58.52z" fill="#B9E4EA"/>
    <path d="M11.16,58.52h-4v-20.4c0-1.1,0.9-2,2-2h0c1.1,0,2,0.9,2,2V58.52z" fill="#B9E4EA"/>
    <path d="M119.86,122.64L119.86,122.64c-1.1,0-2-0.9-2-2v-2.44h4v2.44 C121.86,121.74,120.97,122.64,119.86,122.64z" fill="#B9E4EA"/>
    <g>
      <path d="M60.78,50.42c-0.22,0-0.41-0.18-0.41-0.41V39.66c0-0.22,0.18-0.41,0.41-0.41H84 c0.22,0,0.41,0.18,0.41,0.41v10.35c0,0.22-0.18,0.41-0.41,0.41H60.78z" fill="#FCEBCD"/>
      <path d="M83.9,39.76v10.16H60.88V39.76H83.9 M84,38.75H60.78c-0.5,0-0.91,0.41-0.91,0.91v10.35 c0,0.5,0.41,0.91,0.91,0.91H84c0.5,0,0.91-0.41,0.91-0.91V39.66C84.91,39.16,84.51,38.75,84,38.75L84,38.75z" fill="#78909C"/>
    </g>
    <path d="M64.54,48.49L64.54,48.49c-0.76,0-1.38-0.62-1.38-1.38v-4.54c0-0.76,0.62-1.38,1.38-1.38l0,0 c0.76,0,1.38,0.62,1.38,1.38v4.54C65.92,47.87,65.3,48.49,64.54,48.49z" fill="#FFFFFF"/>
    <path d="M68.45,48.49L68.45,48.49c-0.58,0-1.05-0.47-1.05-1.05v-5.2c0-0.58,0.47-1.05,1.05-1.05l0,0 c0.58,0,1.05,0.47,1.05,1.05v5.2C69.5,48.02,69.03,48.49,68.45,48.49z" fill="#FFFFFF"/>
    <path d="M71.89,48.49L71.89,48.49c-0.43,0-0.77-0.35-0.77-0.77v-5.75c0-0.43,0.35-0.77,0.77-0.77l0,0 c0.43,0,0.77,0.35,0.77,0.77v5.75C72.66,48.14,72.32,48.49,71.89,48.49z" fill="#FFFFFF"/>
    <ellipse cx="72.39" cy="88.31" rx="32.79" ry="32.79" fill="#616161"/>
    <ellipse cx="72.39" cy="88.31" rx="28.47" ry="28.47" fill="#E0E0E0"/>
    <ellipse cx="72.39" cy="88.31" rx="20.33" ry="20.33" fill="#2F7889"/>
    <ellipse cx="72.39" cy="88.31" rx="26.16" ry="26.16"/>
    <ellipse cx="72.39" cy="88.31" rx="19.94" ry="19.94" fill="#2F7889"/>
    <path d="M67.67,71.58c-6.31,1.43-10.08,7.57-10.08,12.1c0,3.67,2.43,2.75,3.21,1.42 c2.01-3.41,4.44-6.25,8.63-7.44c1.68-0.48,3.64-1.53,3.44-3.49C72.59,71.38,69.82,71.09,67.67,71.58z" fill="#94D1E0"/>
    <ellipse cx="72.39" cy="88.31" rx="8.9" ry="8.9" opacity="0.25"/>
  </g>
</svg>

<svg viewBox="0 0 128 128" xmlns="http://www.w3.org/2000/svg">
  <defs/>
  <path d="M25.24,39.27 L12.99,39.27 C11.36,39.27 10.04,37.95 10.04,36.32 L10.04,29.1 C10.04,27.47 11.36,26.15 12.99,26.15 L25.24,26.15 C26.87,26.15 28.19,27.47 28.19,29.1 L28.19,36.32 C28.18,37.95 26.86,39.27 25.24,39.27 Z" fill="#90A4AE"/>
  <path d="M16.28,40.52 L12.28,40.52 L12.28,30.12 C12.28,29.02 13.18,28.12 14.28,28.12 L14.28,28.12 C15.38,28.12 16.28,29.02 16.28,30.12 L16.28,40.52 Z" fill="#94D1E0"/>
  <path d="M42.36,35.8 L36.85,35.8 C35.75,35.8 34.86,34.91 34.86,33.81 L34.86,28.3 C34.86,27.2 35.39,26.72 36.85,26.31 C38.31,25.9 40.97,25.85 42.36,26.31 C43.5,26.69 44.35,27.2 44.35,28.3 L44.35,33.81 C44.35,34.91 43.45,35.8 42.36,35.8 Z" fill="#546E7A"/>
  <path d="M4,58.9 L124,58.9 L124,119.04 L4,119.04 L4,58.9 Z" fill="#212121"/>
  <path d="M4,117.68 L4,120.41 C4,122.39 5.61,124 7.59,124 L120.42,124 C122.4,124 124.01,122.39 124.01,120.41 L124.01,117.68 L4,117.68 Z" fill="#B0BEC5"/>
  <path d="M43.34,40.55 L35.85,40.55 C33.41,40.55 31.43,38.57 31.43,36.13 L31.43,35.48 C31.43,33.04 33.41,31.06 35.85,31.06 L43.34,31.06 C45.78,31.06 47.76,33.04 47.76,35.48 L47.76,36.13 C47.77,38.57 45.79,40.55 43.34,40.55 Z" fill="#90A4AE"/>
  <path d="M121.73,34.16 L8.05,34.16 C5.81,34.16 4,35.97 4,38.21 L4,59.93 L124,59.93 L124,36.43 C124,35.17 122.98,34.16 121.73,34.16 Z" fill="#B0BEC5"/>
  <path d="M112.49,55.24 L94.34,55.24 C93.28,55.24 92.42,54.38 92.42,53.32 L92.42,40.67 C92.42,39.61 93.28,38.75 94.34,38.75 L112.49,38.75 C113.55,38.75 114.41,39.61 114.41,40.67 L114.41,53.33 C114.41,54.38 113.56,55.24 112.49,55.24 Z" fill="#78909C"/>
  <path d="M92.42,52.84 L92.42,40.88 C92.42,39.7 93.37,38.75 94.55,38.75 L112.34,38.75 C113.34,38.75 113.75,39.3 113.75,39.3 L93.11,54.72 C93.11,54.72 92.42,54.3 92.42,52.84 Z" fill="#757575"/>
  <path d="M96.44,41.76 L110.39,41.76 L110.39,52.23 L96.44,52.23 L96.44,41.76 Z" fill="#212121"/>
  <path d="M10.58,115.87 L5.7,115.87 C4.76,115.87 4,115.11 4,114.17 L4,68.28 C4,67.34 4.76,66.58 5.7,66.58 L10.58,66.58 C11.52,66.58 12.28,67.34 12.28,68.28 L12.28,114.17 C12.28,115.11 11.51,115.87 10.58,115.87 Z" fill="#616161"/>
  <path d="M122.28,115.87 L117.4,115.87 C116.46,115.87 115.7,115.11 115.7,114.17 L115.7,68.28 C115.7,67.34 116.46,66.58 117.4,66.58 L122.28,66.58 C123.22,66.58 123.98,67.34 123.98,68.28 L123.98,114.17 C123.98,115.11 123.22,115.87 122.28,115.87 Z" fill="#616161"/>
  <path d="M8.04,122.64 L8.04,122.64 C6.94,122.64 6.04,121.74 6.04,120.64 L6.04,118.2 L10.04,118.2 L10.04,120.64 C10.04,121.74 9.15,122.64 8.04,122.64 Z" fill="#B9E4EA"/>
  <path d="M121.86,58.52 L117.86,58.52 L117.86,38.12 C117.86,37.02 118.76,36.12 119.86,36.12 L119.86,36.12 C120.96,36.12 121.86,37.02 121.86,38.12 L121.86,58.52 Z" fill="#B9E4EA"/>
  <path d="M11.16,58.52 L7.16,58.52 L7.16,38.12 C7.16,37.02 8.06,36.12 9.16,36.12 L9.16,36.12 C10.26,36.12 11.16,37.02 11.16,38.12 L11.16,58.52 Z" fill="#B9E4EA"/>
  <path d="M119.86,122.64 L119.86,122.64 C118.76,122.64 117.86,121.74 117.86,120.64 L117.86,118.2 L121.86,118.2 L121.86,120.64 C121.86,121.74 120.97,122.64 119.86,122.64 Z" fill="#B9E4EA"/>
  <path d="M60.78,50.42 C60.56,50.42 60.37,50.24 60.37,50.01 L60.37,39.66 C60.37,39.44 60.55,39.25 60.78,39.25 L84,39.25 C84.22,39.25 84.41,39.43 84.41,39.66 L84.41,50.01 C84.41,50.23 84.23,50.42 84,50.42 L60.78,50.42 Z" fill="#FCEBCD"/>
  <path d="M83.9,39.76 L83.9,49.92 L60.88,49.92 L60.88,39.76 L83.9,39.76 M84,38.75 L60.78,38.75 C60.28,38.75 59.87,39.16 59.87,39.66 L59.87,50.01 C59.87,50.51 60.28,50.92 60.78,50.92 L84,50.92 C84.5,50.92 84.91,50.51 84.91,50.01 L84.91,39.66 C84.91,39.16 84.51,38.75 84,38.75 L84,38.75 Z" fill="#78909C"/>
  <path d="M64.54,48.49 L64.54,48.49 C63.78,48.49 63.16,47.87 63.16,47.11 L63.16,42.57 C63.16,41.81 63.78,41.19 64.54,41.19 L64.54,41.19 C65.3,41.19 65.92,41.81 65.92,42.57 L65.92,47.11 C65.92,47.87 65.3,48.49 64.54,48.49 Z" fill="#FFFFFF"/>
  <path d="M68.45,48.49 L68.45,48.49 C67.87,48.49 67.4,48.02 67.4,47.44 L67.4,42.24 C67.4,41.66 67.87,41.19 68.45,41.19 L68.45,41.19 C69.03,41.19 69.5,41.66 69.5,42.24 L69.5,47.44 C69.5,48.02 69.03,48.49 68.45,48.49 Z" fill="#FFFFFF"/>
  <path d="M71.89,48.49 L71.89,48.49 C71.46,48.49 71.12,48.14 71.12,47.72 L71.12,41.97 C71.12,41.54 71.47,41.2 71.89,41.2 L71.89,41.2 C72.32,41.2 72.66,41.55 72.66,41.97 L72.66,47.72 C72.66,48.14 72.32,48.49 71.89,48.49 Z" fill="#FFFFFF"/>
  <path d="M105.18,88.31 A32.79 32.79 0 1 1 39.6,88.31 A32.79 32.79 0 1 1 105.18,88.31 Z" fill="#616161"/>
  <path d="M100.86,88.31 A28.47 28.47 0 1 1 43.92,88.31 A28.47 28.47 0 1 1 100.86,88.31 Z" fill="#E0E0E0"/>
  <path d="M92.72,88.31 A20.33 20.33 0 1 1 52.06,88.31 A20.33 20.33 0 1 1 92.72,88.31 Z" fill="#2F7889"/>
  <path d="M98.55,88.31 A26.16 26.16 0 1 1 46.23,88.31 A26.16 26.16 0 1 1 98.55,88.31 Z"/>
  <path d="M92.33,88.31 A19.94 19.94 0 1 1 52.45,88.31 A19.94 19.94 0 1 1 92.33,88.31 Z" fill="#2F7889"/>
  <path d="M67.67,71.58 C61.36,73.01 57.59,79.15 57.59,83.68 C57.59,87.35 60.02,86.43 60.8,85.1 C62.81,81.69 65.24,78.85 69.43,77.66 C71.11,77.18 73.07,76.13 72.87,74.17 C72.59,71.38 69.82,71.09 67.67,71.58 Z" fill="#94D1E0"/>
  <path d="M81.29,88.31 A8.9 8.9 0 1 1 63.49,88.31 A8.9 8.9 0 1 1 81.29,88.31 Z" opacity="0.25"/>
</svg>
